X:2
T:The Miller's Rant
T:From the Logie Collection
C: J. Scott Skinner
R: Strathspey
M:C
L:1/16
Z: Jason R. Fruit <JasonFruit@gmail.com>
K:D
A,(D3 F3)(D A3)(DF3)D | B,(E3 G3)(E B3)(E G3)E | A,(D3 F3)(D A3)(D F3)D | (GB3) (CA3) (D4!tenuto!D2) :|
A2 | (Ad3) f3d a3df3d | B3(^de3)(f g3)(ec3)B | (Ad3) f3d a3df3d | Bd3 (c!tenuto!a3) (d4 !tenuto!d3)A |
(Ad3) f3d a3df3d | B3^de3f g3ec3A | (3a2g2f2 (3e2d2c2 (3B2A2G2 (3F2E2D2 | (3C2D2E2 (3A,2B,2C2 (D4 !tenuto!D2) |]

